src/24/actions/view-time-schedule-baselined-remove.svg

<svg xmlns="http://www.w3.org/2000/svg" viewBox="0 0 24 24">
  <defs id="defs3051">
    <style type="text/css" id="current-color-scheme">
      .ColorScheme-Text {
        color:#5d656b;
      }
      .ColorScheme-NegativeText {
        color:#da4453;
      }
      </style>
  </defs>
  <path 
     style="fill:currentColor;fill-opacity:1;stroke:none" 
     d="M 4 4 L 4 20 L 14 20 L 14 19 L 5 19 L 5 8 L 19 8 L 19 14 L 20 14 L 20 4 L 18 4 L 18 7 L 16 7 L 16 4 L 8 4 L 8 7 L 6 7 L 6 4 L 4 4 z M 6 9 L 6 12 L 7 12 L 7 11 L 11 11 L 11 12 L 12 12 L 12 9 L 11 9 L 11 10 L 7 10 L 7 9 L 6 9 z M 8 13 L 8 16 L 9 16 L 9 15 L 13 15 L 13 16 L 14 16 L 14 13 L 13 13 L 13 14 L 9 14 L 9 13 L 8 13 z "
     class="ColorScheme-Text"/>
  <path
     style="fill:currentColor;fill-opacity:1;stroke:none" 
     d="M 15.833984 15 L 15 15.833984 L 16.666016 17.5 L 15 19.166016 L 15.833984 20 L 17.5 18.333984 L 19.166016 20 L 20 19.166016 L 18.333984 17.5 L 20 15.833984 L 19.166016 15 L 17.5 16.666016 L 15.833984 15 z "
     class="ColorScheme-NegativeText"
     />
</svg>

<svg xmlns="http://www.w3.org/2000/svg" viewBox="0 0 24 24"><path d="M4 4v16h10v-1H5V8h14v6h1V4h-2v3h-2V4H8v3H6V4H4zm2 5v3h1v-1h4v1h1V9h-1v1H7V9H6zm2 4v3h1v-1h4v1h1v-3h-1v1H9v-1H8z" fill="currentColor" color="#5d656b"/><path d="M15.834 15l-.834.834 1.666 1.666L15 19.166l.834.834 1.666-1.666L19.166 20l.834-.834-1.666-1.666L20 15.834 19.166 15 17.5 16.666 15.834 15z" fill="currentColor" color="#da4453"/></svg>
